X:1
T:The Lads in their hundreds
T:The Lads in their hundreds
T:The lads in their hundreds
T:Arthur Somervell
T:A. E. Housman
T:OpenScore (CC0)
T:OpenScore (CC0)
T:OpenScore (CC0)
T:OpenScore (CC0)
T:OpenScore (CC0)
T:OpenScore (CC0)
C:Somervell
Z:A E Housman
Z:OpenScore (CC0)
%%score 1 { ( 2 4 ) | ( 3 5 ) }
L:1/8
Q:1/4=106
M:15/8
K:Ab
V:1 treble nm="Voice"
V:2 treble nm="Piano"
V:4 treble 
V:3 bass 
V:5 bass 
V:1
"^Allegretto ma con molto espressione" z | z6 z2 z z2 z z2!mf! E | %2
w: |The|
 A3/2 B/ c A E E F E D E3/2 A/ G A2 E | A3/2 B/ c A E A G3/2 A/ B E3/2 E/ =D E2 E | %4
w: lads in their hun- dreds to Lud- low come in for the fair, There’s|men from the barn and the forge and the mill and the fold, The|
!<(! B3/2 B/ c d2 B/ B/!<)! e3/2 d/ c B c A B2 B | %5
w: lads for the girls, and the lads for the li- quor are there, And|
"^espress."[Q:1/4=104] f3/2 B/ B e[Q:1/4=102] A d c3/2 c/ B[Q:1/4=106] A3/2!>(! B/ G A3!>)! | %6
w: there with the rest are the lads that will nev- er be old.|
 z6 z2 z z2 z z2!mf! E | A3/2 B/ c A E E F E D E3/2 A/ G A2 E | %8
w: There’s|chaps from the town and the field and the till and the cart, And|
 A3/2 B/ c A E A G3/2 A/ B E/ E3/2 =D E2 E | %9
w: man- y to count are the stal- wart, and man- y the brave, And|
!<(! B3/2 B/ c d B B e3/2 d/!<)! c B c A !fermata!B2 B | %10
w: man- y the hand- some of face and the hand- some of heart; And|
"^espress."[Q:1/4=104] f3/2 B/ B e A d c3/2 c/ B[Q:1/4=102]!>(! A3/2 B/ G A3!>)![Q:1/4=106] | %11
w: few that will car- ry their looks or their truth to the grave.|
 z6 z2 z z2 z[Q:1/4=104] z2"^meno mosso"[Q:1/4=98] c | %12
w: I|
!<(! B3/2 G/ E!<)! A G c B3/2 G/ E G3/2 A/ F E2 E | %13
w: wish one could know them, I wish there were tok- ens to tell The|
!<(! B3/2 B/ c d B!<)! B e3/2 d/ c B3/2 =A/!<(! B c2 c!<)! | f3/2 f/ e d c B e3- e e d c3/2 B/ A || %15
w: for- tun- ate fel- lows that now you can nev- er dis- cern; And|then one could talk with them friend- * ly and wish them fare-|
[M:6/8] c3- c2 B ||[M:12/8] A3/2 A/ B c B A e3/2 E/ F G3/2 A/ B || %17
w: \- well, _ And|watch them de- part on the way that they will not re-|
[K:C][M:15/8]"^Tempo I."[Q:1/4=106]!>(! _c6!>)! z6 z2 z ||[K:Ab] z6 z2 z z2 z[Q:1/4=104] z2!pp! E | %19
w: \- turn.|But|
 A3/2 B/ c A E E F3/2 E/ D E3/2 A/ G A2!p! E | A3/2 B/ c A E A G3/2 A/ B E/ E3/2 =D E2!mp! E | %21
w: now you may stare as you like but there's noth- ing to scan; And|brush- ing your el- bow un- guessed at and not * be told They|
"^cresc." B3/2 B/ c d B B e3/2 d/ c B c A[Q:1/4=100] B2!f! B | %22
w: car- ry back bright to the coin- er the min- tage of man, The|
 f3/2 B/ B e A d c3/2 c/ B!ff!!<(! e3-!<)!!>(! e2!>)! A/ A/ | %23
w: lads that will die in their glo- ry, the lads _ that will|
"^rall."[Q:1/4=96]!<(! d3-!<)!!>(! d3/2 c/ B!>)! c3/2 B/[Q:1/4=90] A E3/2 A/ G A3-[Q:1/4=100] | %24
w: die _ in their glo- ry and nev- er be old|
!>(! A6!>)! z6 z2 z | !fermata!z15[Q:1/4=96][Q:1/4=90][Q:1/4=40] |] %26
w: _||
V:2
!p! [Ec] |!<(! [EB]>c([=DA] [EG]>)A[B,F]!<)! E>A[!courtesy!_DG]!>(! [CA]>C[A,=D] [_DE]2!>)! z | %2
!mf! [A,C]2 (([G,D] [A,C]2)) [A,-E] [A,F]2 ([A,-D] [A,CE]2) ([B,DEG] [A,CEA]2) [B,DE] | %3
 [A,CE]2 (([G,D] [A,C]2)) (([A,=DA] [B,EG]2)) ([B,E-] [A,E]2) (([A,=D] [G,E]2)) E | %4
!<(! [DFB]2 (([CFc] [DFd]2)) ([D-FB-]!<)! [DEB]2) (([CEA] [EA]2)) [CEA] AG z | %5
 [FGBf]2 [EGB]!>(! [Ee]2 [DGd] [Cc]2 [DFB]!>)!!>(! [C_EA]2 [B,DE-] !breath![A,CE]2!>)!!mf! [EAe] | %6
 d>e[EAc] [EB]>c[=DA] [EG]>F[EG]!>(! [EA]>C[A,=D]!>)! [_DE]2 z | %7
!mf! [A,CE]2 [G,D] [A,C]2 [A,E] [A,F]2 [A,B,D] [A,CE]2 (([B,DEG] [A,CEA]2)) [B,DE] | %8
 [A,CE]2 [G,D] [A,C]2 [A,=DA] [G,EG]2 [B,E] [A,CE]2 [A,B,=D] [G,B,E]2 E | %9
!<(! [DFB]2 [CFc] [DFd]2 [D-FB-] [DEB]2!<)! [CEA-] [EA]2 [CEA] AG z | %10
 [FGBf]2 [EGB] [Ee]2 [DGd] [Cc]2 [DFB]!>(! [C_EA]2 [B,DE] [A,CE]2!>)!!mf! [Aea] | %11
 [dg]>a[cf] [Be]>f[Ad] [Ec]>d[FB]!>(! [EA]>B[DG] [EA]>B[C=DFc]!>)! | %12
!<(! [B,EB]3 [A,=DA]!<)![G,EG][DFc] [B,EB]2 [A,CE] [G,B,E]2 [F,A,=D] [G,E]2 z | %13
!<(! [DFB]2 [CFc] [DFd]2!<)! z [E_GBe]2 z [B,=EB]2 z!<(! B=A [FAc]!<)! | %14
 [FBf]2 [F=Ae] [FBd]2 [DFB] z!mp!!<(! [B,B][_A,_A] [G,G]>[A,A]!<)!!>(![B,B] [CEc]2!>)! z || %15
[M:6/8] z!<(! [G,G][F,F] [=E,=E]>[F,F][G,G]!<)! || %16
[M:12/8] [A,CA]3 [A,=DA]3!>(! [A,CEA]3 [B,EG]>[A,EA][_DGB]!>)! || %17
[K:C][M:15/8] !fermata![^D^FB]2!p!!>(! [Be] [A^d]>e[^G^c] [^FB]2!>)!!p!!>(! [Be] [A^d]>e[^G^c] [FB]2!>)!!p! [_B_e] || %18
[K:Ab]!<(! [Ad]>e[Gc] [FB]>c[EA] [=DG]>A[CF] [B,E]>F!<)!!>(![A,_D] [A,C]>D[G,DE]!>)! | %19
[K:bass]!pp! [A,C]2 [G,D] [A,C]2 [E,A,E] [F,A,F]2 [A,D] [A,CE]2 [E,G,D] [E,A,C]2 [E,G,B,] | %20
!p! [A,C]2 [G,D] [A,C]2[K:treble] [A,=DA] [B,EG]2 [B,EB] [A,CE]2 [A,B,=D] [G,B,E]2 z | %21
!<(! [DFB]2 [CFc] [DFd]2 [DFB]!<)! [DEB]2 [CEA] [A,E]2 [CEA] AG!f! [EG] | %22
 [Cc] [B,B]2 [B,B][A,A][G,DG]!<(! [=E,=E][F,F]!<(! [B,_EGB]!<)! [EBe]>!<)!!f![A,EA][A,EA] [Dd]2 [CAc] | %23
 [B,B]>"_rall."[Cc][A,EA] [G,EG]2 [G,B,E] [A,EA]2 [A,=DF] [A,CE]2 [B,_DEG] [A,CEA]2!ff!!<(! [Aea] | %24
 g>af!<)!!fff! !breath![Beb]2!f!!<(! [Be] [Ad]>e[Gc]!<)!!ff! !breath![Ff]2!mf! [B,EG] [A,EA]>[G,G][A,CEA] | %25
!<(! [F,F]>[A,A][G,DG] [A,CA]>[Cc][B,EB] [Cc]>[Ee][DAd]!<)!"_rit." [EAe]>a[Gdg] !fermata![Acea]3 |] %26
V:3
 [A,C] | [G,B,]2 ([F,B,-] [E,B,]2) [D,G,] [C,A,]2 [B,,E,] [A,,E,]2 [F,,B,,] [E,,B,,]2 z | %2
 [A,,E,]3- [A,,E,]2 ([C,E,] [D,F,]2) (F, E,2) E, A,,2 z | %3
 [A,,E,]3- [A,,E,]2 ([F,,F,] [E,,E,]2) ([G,,E,-] [F,,E,]2) (([B,,F,] [E,,E,]2)) [E,G,] | %4
 [D,F,]2 [C,=A,] [B,,B,]2 [_A,,_A,] [G,,G,]2 ([A,,A,-] [C,A,]2) [A,,A,] [E,,E,]2 z | %5
 [D,D]2 [D,B,] B,A,G, (=E,F,)F, _E,2 [E,,E,-] [A,,E,]2 C | %6
 [B,D]2 [A,C] [G,B,]2 [F,B,] [E,B,]2 [D,B,] [C,A,]2 [F,,B,,] [E,,B,,]2 z | %7
 [A,,E,]3- [A,,E,]2 [C,E,] [D,F,]2 (F, E,2) ([E,,E,-] [A,,E,]2) z | %8
 [A,,E,]3- [A,,E,]2 ([F,,B,,-] [E,,B,,]2) ([G,,E,-] [F,,E,]2) [B,,F,] [E,,E,]2 [E,G,B,] | %9
 [D,F,]2 [C,F,=A,] [B,,F,B,]2 [_A,,_A,] [G,,E,]2 ([A,,E,] [C,A,]2) [A,,A,] [E,,E,]2 z | %10
 [D,D]2 [D,B,] B,A,G, =E,F, [D,F,] _E,2 ([E,,E,-] [A,,E,]2) [CE] | %11
 [B,E]2 [A,E] [G,E]2 [F,E] [E,A,]2 [D,A,] [C,A,]2 [B,,A,] [C,A,]2 [A,,A,] | %12
 [G,,B,,G,]3 B,,2 F, G,,2 [A,,E,] B,,2 [B,,,B,,] [E,,B,,]2 z | %13
 [D,F,B,]2 [C,F,=A,] [B,,F,B,]2 z [C,E,_G,B,]2 z [_G,,B,,G,]2 z [F,,C,F,]2 [E,F,=A,C] | %14
 [D,F,B,]2 [C,F,=A,] [B,,F,B,]2 [_A,,F,B,] z [G,,G,][F,,F,] [E,,E,]>[F,,F,][G,,G,] [A,,!courtesy!_A,]2 z || %15
[M:6/8] z [=E,,=E,][=D,,=D,] [C,,C,]>[D,,D,][E,,E,] || %16
[M:12/8] [F,,C,F,]3 [F,,B,,F,]3 [E,,A,,E,]3 [D,,D,]>[C,,C,][B,,,B,,] || %17
[K:C][M:15/8] !fermata![A,,,A,,]2 [^G,B,] [^F,B,]2 [E,B,] [^D,B,]2 [^G,B,] [^F,B,]2 [E,B,] [D,B,]2 [=G,_E] || %18
[K:Ab] [F,B,]2 [E,B,] [D,B,]2 [C,B,] [B,,B,]2 [A,,E,] [G,,E,]2 [F,,E,] [E,,E,]2 [E,,E,] | %19
 [A,,,A,,]3- [A,,,A,,]2 [C,,C,] [D,,A,,D,]2 [F,,A,,F,] [E,,A,,E,]2 [E,,B,,] [A,,,A,,]2 z | %20
 [A,,,A,,]3- [A,,,A,,]2 [F,,C,F,] [E,,B,,E,]2 [G,,G,] [A,,F,]2 [B,,F,] [E,,E,]2 z | %21
 [D,F,B,]2 [C,F,=A,] [B,,F,B,]2 [_A,,F,B,] [G,,E,]2 [A,,E,] [C,E,]2 [A,,E,] [E,,E,]2 [E,B,] | %22
 [D,,D,]3 [C,,C,]2 [B,,,B,,] [A,,,A,,]2 [D,,D,] [C,,C,]2 [C,E,] A,G, [A,,E,A,] | %23
 [G,,G,]2 [F,,F,] [E,,E,]2 [D,,D,] [C,,C,]2 [B,,,B,,] [E,,E,]2 [E,,,E,,] [A,,,A,,]2 [CE] | %24
 [B,E]2 [A,E] [G,E]2 [G,B,] [F,B,]2 [E,B,] [D,A,B,]2 [D,,D,] [C,,C,]2 [A,,,A,,] | %25
 [D,,D,]2 [E,,E,] [F,,F,]2 [G,,G,] [A,,A,]2 [F,A,] [E,A,C]2 [E,B,D]!ped!{/!fermata![A,,,A,,]} !fermata![E,A,CE]3!ped-up! |] %26
V:4
 x | x12 A,G, x | x15 | x15 | x12 [B,E]2 x | x3 BA x (=EF) x7 | [EG]2 x10 (A,!fermata!G,) x | x15 | %8
 x15 | x12 [B,E]2 x | x3 BA x =EF x7 | x15 | x15 | x12 [CF]2 x | x7 [DE]2 [DE]2 x4 || %15
[M:6/8] x3 [B,C]2 x ||[M:12/8] x12 ||[K:C][M:15/8] x15 ||[K:Ab] x15 |[K:bass] E,3- E,2 x10 | %20
 E,3- E,2[K:treble] x10 | x12 [B,E]2 x | F3 E2 x C2 x4 AG x | E2 x13 | d2 c x12 | x15 |] %26
V:5
 x | x15 | x15 | x15 | x15 | x3 C,2 B,, A,,2 D, x6 | x15 | x15 | x15 | x15 | x3 C,2 B,, A,,2 x7 | %11
 x15 | x3 F,,E,,A,, x9 | x15 | x15 ||[M:6/8] x6 ||[M:12/8] x12 ||[K:C][M:15/8] x15 ||[K:Ab] x15 | %19
 x15 | x15 | x15 | x12 [B,,E,]2 x | x15 | x15 | x15 |] %26

